img/svg/view-tiles.svg

<svg fill="none" height="10" viewBox="0 0 10 10" width="10" xmlns="http://www.w3.org/2000/svg"><g fill="currentColor"><path d="m1.72962 0h-1.458966c-.149665 0-.270654.120972-.270654.270617v1.459043c0 .14909.120989.27034.270654.27034h1.458966c.14939 0 .27038-.12125.27038-.27034v-1.459043c0-.149645-.12099-.270617-.27038-.270617z"/><path d="m5.72938 0h-1.45904c-.14909 0-.27034.120972-.27034.270617v1.459043c0 .14909.12125.27034.27034.27034h1.45904c.14965 0 .27062-.12125.27062-.27034v-1.459043c0-.149645-.12097-.270617-.27062-.270617z"/><path d="m9.72962 0h-1.45897c-.14966 0-.27065.120972-.27065.270617v1.459043c0 .14909.12099.27034.27065.27034h1.45897c.14939 0 .27038-.12125.27038-.27034v-1.459043c0-.149372-.12099-.270617-.27038-.270617z"/><path d="m1.72962 4h-1.458966c-.149665.00027-.270654.12099-.270654.27038v1.45924c0 .14939.120989.27038.270654.27038h1.458966c.14939 0 .27038-.12099.27038-.27038v-1.45924c0-.14939-.12099-.27038-.27038-.27038z"/><path d="m5.72938 4h-1.45904c-.14909 0-.27034.12099-.27034.27038v1.45924c0 .14939.12125.27038.27034.27038h1.45904c.14965 0 .27062-.12099.27062-.27038v-1.45924c0-.14939-.12097-.27038-.27062-.27038z"/><path d="m9.72962 4h-1.45897c-.14966 0-.27065.12099-.27065.27038v1.45924c0 .14939.12099.27038.27065.27038h1.45897c.14939 0 .27038-.12099.27038-.27038v-1.45924c0-.14939-.12099-.27038-.27038-.27038z"/><path d="m1.72962 8h-1.458966c-.149665 0-.270654.12125-.270654.27034v1.45904c0 .14937.120989.27062.270654.27062h1.458966c.14939 0 .27038-.12125.27038-.27062v-1.45904c0-.14909-.12099-.27034-.27038-.27034z"/><path d="m5.72938 8h-1.45904c-.14909 0-.27034.12125-.27034.27034v1.45904c0 .14937.12125.27062.27034.27062h1.45904c.14965 0 .27062-.12125.27062-.27062v-1.45904c0-.14909-.12097-.27034-.27062-.27034z"/><path d="m9.72962 8h-1.45897c-.14966 0-.27065.12125-.27065.27034v1.45904c0 .14937.12099.27062.27065.27062h1.45897c.14939 0 .27038-.12125.27038-.27062v-1.45904c0-.14909-.12099-.27034-.27038-.27034z"/></g></svg>

<svg fill="none" height="10" width="10" xmlns="http://www.w3.org/2000/svg"><path d="M1.73 0H.27A.27.27 0 000 .27v1.46c0 .149.121.27.27.27h1.46A.27.27 0 002 1.73V.27A.27.27 0 001.73 0zm4 0H4.27A.27.27 0 004 .27v1.46c0 .149.121.27.27.27h1.46A.27.27 0 006 1.73V.27A.27.27 0 005.73 0zm4 0H8.27A.27.27 0 008 .27v1.46c0 .149.121.27.27.27h1.46a.27.27 0 00.27-.27V.27A.27.27 0 009.73 0zm-8 4H.27a.27.27 0 00-.27.27v1.46c0 .149.121.27.27.27h1.46A.27.27 0 002 5.73V4.27A.27.27 0 001.73 4zm4 0H4.27a.27.27 0 00-.27.27v1.46c0 .149.121.27.27.27h1.46A.27.27 0 006 5.73V4.27A.27.27 0 005.73 4zm4 0H8.27a.27.27 0 00-.27.27v1.46c0 .149.121.27.27.27h1.46a.27.27 0 00.27-.27V4.27A.27.27 0 009.73 4zm-8 4H.27a.27.27 0 00-.27.27v1.46c0 .149.121.27.27.27h1.46A.27.27 0 002 9.73V8.27A.27.27 0 001.73 8zm4 0H4.27a.27.27 0 00-.27.27v1.46c0 .149.121.27.27.27h1.46A.27.27 0 006 9.73V8.27A.27.27 0 005.73 8zm4 0H8.27a.27.27 0 00-.27.27v1.46c0 .149.121.27.27.27h1.46a.27.27 0 00.27-.27V8.27A.27.27 0 009.73 8z" fill="currentColor"/></svg>
